X: 327
P: Longways for as many as will
M: 6/4
L: 1/4
K: D
d2e fgf | ecd B2A | d2B B2A | A3- A2e |\
a2g f>ed | g2e c>Bc | d2F E2c | d3- d2 |]

